X:85
T:Brooms on Crowdeknows, The
T:Song
S:John Moore's Book 2
Z:Transcribed by Edmund Spriggs 05/2021
%%VWML: Moore1-4494-p66-0
F:http://www.vwml.org/record/Moore2/4494/p66
M:C
N:Tune continues on page 67.
N:Crotchets in bars 21 and 22 should be quavers. Marked NB.
L:1/8
K:G
(d<c)|(B<G)(A<c){c}B2A<G|(B<d)(c<e){e}d2(c<B)|e<gc<e A<cE<A|G2F2z2A2|
(d<A)(B<c) (B<G) (B<d)|(g<d)(e<=f){f}e3^f|(g<e)(f<d) (B<g)(.e<^c)|^c2d4d=c|
Bd GB EG ce|dB GBc3B|(ce)(dB) (Ac)(BG)|{G2}F4z2d2|
(gf)d'f (fe) c' e|(ed) b c (cB) g c|((3Bge) ((3dBG) E<cA<F|G4z4|
(d<B)(B<G)e3g|(d<B)(B<G)g3d|e3d (cB)(AG)|({G2}F4)z2d2|
(ge) d'f2fe c'e2|(ed) bc2(cB) g c|((3Bge) ((3dBG) E<cA<F|{F2}G4z2d2|
(gf)(d'f) (fe)(c'e)|(ed)(bc) (cB)(gc)|((3Bge) ((3dBG) E<cA<F|G4"Da Capo"z2:|

